public/cloud-icons/azure/deployment/confluent-organization.svg

<svg xmlns="http://www.w3.org/2000/svg" xml:space="preserve" width="56.69" height="56.69" style="font-size:12px;overflow:visible;color-interpolation-filters:sRGB;fill-rule:evenodd;stroke-linecap:square;stroke-miterlimit:3" viewBox="0 0 56.69 56.69"><g transform="translate(-9.563 -9.564)"><title>Page-1</title><g transform="translate(9.563 -34.016)"><title>Confluent Organization.18542</title><title>Sheet.18543</title><g transform="translate(10.931 -10.94)"><title>Sheet.18544</title><path d="M30.47 83.65c1.46-.08 2.91-.12 4.35-.23v-1.11c-1.45-.11-2.9-.15-4.35-.23l-4.35-.14c-2.55-.08-5.11-.09-7.66-.11-.01-2.56-.02-5.11-.09-7.67l-.12-4.35c-.07-1.46-.12-2.91-.22-4.35H16.8c-.11 1.45-.15 2.9-.23 4.35l-.12 4.35c-.04 1.19-.04 2.4-.06 3.59q-.705-1.65-1.44-3.3l-1.78-3.98c-.62-1.31-1.22-2.64-1.87-3.94l-1.13.47c.46 1.38.97 2.74 1.46 4.1l1.55 4.07c.43 1.11.88 2.23 1.32 3.35-.86-.85-1.72-1.68-2.59-2.5l-3.16-3c-1.08-.97-2.13-1.96-3.23-2.92l-.87.87c.96 1.1 1.95 2.15 2.92 3.23l3 3.16c.82.87 1.66 1.73 2.5 2.59-1.12-.44-2.23-.89-3.35-1.32l-4.07-1.55c-1.37-.49-2.73-1-4.1-1.46l-.47 1.13c1.3.65 2.62 1.25 3.93 1.87l3.98 1.78c1.1.49 2.2.97 3.31 1.44-1.2.01-2.41.02-3.6.06l-4.35.12c-1.45.07-2.91.12-4.35.22v1.24c1.45.1 2.91.14 4.35.22l4.35.12c2.56.07 5.11.08 7.67.09.02 2.55.04 5.11.12 7.66l.13 4.35c.08 1.45.12 2.91.23 4.35h1.11c.11-1.45.16-2.9.23-4.35l.14-4.35c.03-1.23.06-2.45.07-3.68.49 1.12.97 2.26 1.48 3.37l1.79 3.97c.63 1.31 1.22 2.63 1.88 3.93l1.02-.42c-.46-1.38-.96-2.74-1.45-4.11l-1.54-4.08c-.44-1.15-.89-2.29-1.34-3.43.88.86 1.76 1.71 2.66 2.55l3.17 2.98c1.08.98 2.14 1.97 3.24 2.92l.79-.79c-.95-1.1-1.94-2.16-2.91-3.24l-2.99-3.17c-.84-.9-1.69-1.78-2.55-2.66 1.14.45 2.29.9 3.44 1.34l4.07 1.54c1.37.48 2.73.99 4.11 1.45l.43-1.03c-1.31-.65-2.63-1.25-3.94-1.88l-3.96-1.79c-1.12-.5-2.25-.99-3.38-1.47 1.23-.02 2.45-.04 3.69-.08z" style="fill:#142b52;stroke:none;stroke-width:9.5625;stroke-linecap:butt"/></g><title>Sheet.18545</title><path d="M28.35 45.94c-14.33 0-25.98 11.66-25.98 25.98 0 14.33 11.65 25.99 25.98 25.99 14.32 0 25.98-11.66 25.98-25.99 0-14.32-11.66-25.98-25.98-25.98m0 54.33C12.72 100.27 0 87.56 0 71.92 0 56.3 12.71 43.58 28.35 43.58c15.62 0 28.34 12.71 28.34 28.34-.01 15.63-12.72 28.35-28.34 28.35" style="fill:#142b52;stroke:none;stroke-width:9.5625;stroke-linecap:butt"/></g></g></svg>

<?xml version="1.0" encoding="UTF-8" standalone="no"?>
<!-- Generated by Microsoft Visio, SVG Export Confluent Organization.svg Page-1 -->

<svg
   xmlns:dc="http://purl.org/dc/elements/1.1/"
   xmlns:cc="http://creativecommons.org/ns#"
   xmlns:rdf="http://www.w3.org/1999/02/22-rdf-syntax-ns#"
   xmlns:svg="http://www.w3.org/2000/svg"
   xmlns="http://www.w3.org/2000/svg"
   xmlns:sodipodi="http://sodipodi.sourceforge.net/DTD/sodipodi-0.dtd"
   xmlns:inkscape="http://www.inkscape.org/namespaces/inkscape"
   width="56.689999"
   height="56.689999"
   viewBox="0 0 56.689997 56.689997"
   xml:space="preserve"
   class="st2"
   version="1.1"
   id="svg24"
   sodipodi:docname="Confluent Organization.svg"
   style="font-size:12px;overflow:visible;color-interpolation-filters:sRGB;fill:none;fill-rule:evenodd;stroke-linecap:square;stroke-miterlimit:3"
   inkscape:version="0.92.5 (2060ec1f9f, 2020-04-08)"><metadata
   id="metadata30"><rdf:RDF><cc:Work
       rdf:about=""><dc:format>image/svg+xml</dc:format><dc:type
         rdf:resource="http://purl.org/dc/dcmitype/StillImage" /></cc:Work></rdf:RDF></metadata><defs
   id="defs28" /><sodipodi:namedview
   pagecolor="#ffffff"
   bordercolor="#666666"
   borderopacity="1"
   objecttolerance="10"
   gridtolerance="10"
   guidetolerance="10"
   inkscape:pageopacity="0"
   inkscape:pageshadow="2"
   inkscape:window-width="640"
   inkscape:window-height="480"
   id="namedview26"
   showgrid="false"
   inkscape:zoom="2.3536216"
   inkscape:cx="28.346451"
   inkscape:cy="16.118798"
   inkscape:window-x="0"
   inkscape:window-y="0"
   inkscape:window-maximized="0"
   inkscape:current-layer="svg24" />
	<style
   type="text/css"
   id="style2">
	<![CDATA[
		.st1 {fill:#142b52;stroke:none;stroke-linecap:butt;stroke-width:9.5625}
		.st2 {fill:none;fill-rule:evenodd;font-size:12px;overflow:visible;stroke-linecap:square;stroke-miterlimit:3}
	]]>
	</style>

	<g
   id="g22"
   transform="translate(-9.5625,-9.5643)">
		<title
   id="title4">Page-1</title>
		<g
   id="group18542-1"
   transform="translate(9.5625,-34.0157)">
			<title
   id="title6">Confluent Organization.18542</title>
			<g
   id="group18543-2">
				<title
   id="title8">Sheet.18543</title>
				<g
   id="shape18544-3"
   transform="translate(10.9311,-10.94)">
					<title
   id="title10">Sheet.18544</title>
					<path
   d="m 30.47,83.65 c 1.46,-0.08 2.91,-0.12 4.35,-0.23 V 82.31 C 33.37,82.2 31.92,82.16 30.47,82.08 L 26.12,81.94 C 23.57,81.86 21.01,81.85 18.46,81.83 18.45,79.27 18.44,76.72 18.37,74.16 L 18.25,69.81 C 18.18,68.35 18.13,66.9 18.03,65.46 H 16.8 c -0.11,1.45 -0.15,2.9 -0.23,4.35 l -0.12,4.35 c -0.04,1.19 -0.04,2.4 -0.06,3.59 -0.47,-1.1 -0.95,-2.2 -1.44,-3.3 L 13.17,70.47 C 12.55,69.16 11.95,67.83 11.3,66.53 L 10.17,67 c 0.46,1.38 0.97,2.74 1.46,4.1 l 1.55,4.07 c 0.43,1.11 0.88,2.23 1.32,3.35 -0.86,-0.85 -1.72,-1.68 -2.59,-2.5 l -3.16,-3 C 7.67,72.05 6.62,71.06 5.52,70.1 l -0.87,0.87 c 0.96,1.1 1.95,2.15 2.92,3.23 l 3,3.16 c 0.82,0.87 1.66,1.73 2.5,2.59 -1.12,-0.44 -2.23,-0.89 -3.35,-1.32 L 5.65,77.08 c -1.37,-0.49 -2.73,-1 -4.1,-1.46 L 1.08,76.75 C 2.38,77.4 3.7,78 5.01,78.62 l 3.98,1.78 c 1.1,0.49 2.2,0.97 3.31,1.44 -1.2,0.01 -2.41,0.02 -3.6,0.06 L 4.35,82.02 C 2.9,82.09 1.44,82.14 0,82.24 v 1.24 c 1.45,0.1 2.91,0.14 4.35,0.22 l 4.35,0.12 c 2.56,0.07 5.11,0.08 7.67,0.09 0.02,2.55 0.04,5.11 0.12,7.66 l 0.13,4.35 c 0.08,1.45 0.12,2.91 0.23,4.35 h 1.11 c 0.11,-1.45 0.16,-2.9 0.23,-4.35 l 0.14,-4.35 c 0.03,-1.23 0.06,-2.45 0.07,-3.68 0.49,1.12 0.97,2.26 1.48,3.37 l 1.79,3.97 c 0.63,1.31 1.22,2.63 1.88,3.93 l 1.02,-0.42 C 24.11,97.36 23.61,96 23.12,94.63 l -1.54,-4.08 c -0.44,-1.15 -0.89,-2.29 -1.34,-3.43 0.88,0.86 1.76,1.71 2.66,2.55 l 3.17,2.98 c 1.08,0.98 2.14,1.97 3.24,2.92 l 0.79,-0.79 c -0.95,-1.1 -1.94,-2.16 -2.91,-3.24 L 24.2,88.37 c -0.84,-0.9 -1.69,-1.78 -2.55,-2.66 1.14,0.45 2.29,0.9 3.44,1.34 l 4.07,1.54 c 1.37,0.48 2.73,0.99 4.11,1.45 L 33.7,89.01 C 32.39,88.36 31.07,87.76 29.76,87.13 L 25.8,85.34 c -1.12,-0.5 -2.25,-0.99 -3.38,-1.47 1.23,-0.02 2.45,-0.04 3.69,-0.08 z"
   class="st1"
   id="path12"
   inkscape:connector-curvature="0"
   style="fill:#142b52;stroke:none;stroke-width:9.5625;stroke-linecap:butt" />
				</g>
				<g
   id="shape18545-5">
					<title
   id="title15">Sheet.18545</title>
					<path
   d="m 28.35,45.94 c -14.33,0 -25.98,11.66 -25.98,25.98 0,14.33 11.65,25.99 25.98,25.99 14.32,0 25.98,-11.66 25.98,-25.99 0,-14.32 -11.66,-25.98 -25.98,-25.98 z m 0,54.33 C 12.72,100.27 0,87.56 0,71.92 0,56.3 12.71,43.58 28.35,43.58 c 15.62,0 28.34,12.71 28.34,28.34 -0.01,15.63 -12.72,28.35 -28.34,28.35 z"
   class="st1"
   id="path17"
   inkscape:connector-curvature="0"
   style="fill:#142b52;stroke:none;stroke-width:9.5625;stroke-linecap:butt" />
				</g>
			</g>
		</g>
	</g>
</svg>
